assets/images/avatar/Avatar 04.svg

<svg fill="none" height="128" viewBox="0 0 128 128" width="128" xmlns="http://www.w3.org/2000/svg" xmlns:xlink="http://www.w3.org/1999/xlink"><mask id="a" height="108" maskUnits="userSpaceOnUse" width="112" x="8" y="10"><path clip-rule="evenodd" d="m62.6286 10.0575c15.4863.0698 34.0156 11.369 44.1924 23.0749 10.707 12.3141 14.893 29.1617 11.488 45.1382-3.464 16.2509-13.706 31.1294-29.0689 37.3574-14.4407 5.854-29.5659-1.328-43.7185-7.851-14.6385-6.747-31.3288-13.3094-35.84007-28.8194-4.72893-16.2584 2.64587-33.6812 14.01987-46.2001 10.5033-11.5605 23.3321-22.77038 38.9272-22.7z" fill="#eff6f7" fill-rule="evenodd"/></mask><g mask="url(#a)"><path clip-rule="evenodd" d="m65.4958 17.5251c15.4864.0698 31.1484 3.9014 41.3252 15.6073 10.707 12.3141 14.893 29.1617 11.488 45.1382-3.464 16.2508-13.706 31.1294-29.0689 37.3574-14.4407 5.854-29.5659-1.328-43.7185-7.851-14.6385-6.747-31.3288-13.3095-35.84007-28.8195-4.72893-16.2584 2.64587-33.6811 14.01987-46.2 10.5033-11.5605 26.1994-15.3028 41.7944-15.2324z" fill="#eff6f7" fill-rule="evenodd"/><path d="m74.6525 66.1813c0 8.4602 1.1154 15.811 9.3561 20.3459 10.0389 5.5192 11.6572 5.4857 20.3734 10.8434 10.472 6.4274 16.911 14.7654 18.88 26.3464l-118.75657.144c0-1.36 3.32497-12.267 10.29787-19.408 4.4679-4.5712 11.4529-8.9841 22.1775-13.5098 14.9669-6.3177 10.7094-9.7524 10.0815-28.0595-.3718-10.9775 27.5902-11.392 27.5902 3.2976z" fill="#e7baef"/><path d="m76.481 78.3808c-1.155-2.7641-1.6152-5.8575-1.7615-9.1702-8.1737.3261-19.5047-.0671-27.264.195.5456 6.7444 1.219 10.8495-.192 14.0191 7.7257 6.016 24.1494 2.051 29.2175-5.0439z" fill="#db9fe6"/><path d="m125.639 124.126-27.1755.036-74.0785.082-22.24758.025c-.09447 0 1.49029-5.044 1.6061-5.34 1.3301-3.425 3.05224-6.686 5.13215-9.715 4.72073-6.797 13.68083-11.6514 20.92503-15.2202 2.1546-1.0758 12.55-5.507 12.55-5.507 1.8743 2.4381 10.5052 8.195 13.0865 9.0849 1.1337.4023 4.0015 16.3173 6.8541 16.6183 1.7402.186 5.1474-9.831 5.8606-14.8141.0822-.5851 2.3223-1.5726 4.2057-2.5112 7.2168-3.5871 12.7756-8.1341 13.4095-10.2126.3962 1.149 17.9479 9.2587 20.9799 11.1177 10.475 6.4462 16.914 14.7692 18.892 26.3562z" fill="#b671c6"/><g fill="#e7baef"><path d="m43.5668 82.5775c2.5783 2.0693 4.0198 3.7638 7.235 4.8761 3.0995 1.0576 5.3364 1.6915 5.6168 5.4858.1097 1.4872-.1524 5.8941-.1524 5.8941-10.8373 0-17.7036-6.7048-17.7036-8.5791 1.4042-2.7216 3.0808-5.2938 5.0042-7.6769z"/><path d="m80.9062 80.2856c-1.9871 2.8181-4.622 5.1175-7.6831 6.7048-3.2243 1.7128-4.6476 2.5143-5.2053 4.6872-.6796 2.6423 0 7.7258 0 7.7258.5303.3047 4.4434.4114 9.5695-2.2858 2.816-1.4811 8.1463-6.8022 9.1185-9.8255-1.5787-2.6179-3.8888-4.5226-5.7996-7.0065z"/><path d="m45.4929 27.894c-2.2064 5.7509-.0792 9.3989-2.0023 15.6678-4.5013 14.6926-2.5204 23.549 2.045 29.1292 3.1725 3.8796 5.9245 7.2746 12.931 7.9543 13.0255 1.2617 20.0961-3.7242 24.1281-13.5437 3.1969-7.7866.7862-14.3542 2.9531-20.483 5.379-15.2015-2.941-24.6308-18.3863-26.1486-12.2819-1.2099-20.0137 3.1056-21.6686 7.424z"/></g><path d="m82.0155 34.4586s5.9246-4.8945 4.5105-10.0572c-2.2491-8.1737-11.4651-8.1737-14.7321-10.3284-4.2941-2.8342-11.2184-4.0624-18.941-.2285-9.0667 4.4983-10.749 15.3813-7.2534 19.5474 1.0179-2.1547 2.2918-4.0686 3.8766-4.9767 4.3428-2.4808 7.0705.6095 12.3947 1.2403 4.2453.5059 9.2739-.7863 11.6663-.7375 7.5672.1585 8.4784 5.5406 8.4784 5.5406z" fill="#3f3d65"/><path d="m81.2567 31.795s1.5238 2.5874.6796 8.4632c-.8808 6.208-1.3196 9.7341-.0762 12.2484.7345 1.4812 1.4751.64 1.4751.64l3.4072-5.0072c5.8697-1.8286 9.1947-23.7958-2.8678-24.8564-8.1859-.7192-2.6179 8.512-2.6179 8.512z" fill="#3f3d65"/><path d="m47.8913 29.3294c-2.1865 2.8437-3.384 6.3239-3.4103 9.9109 0 5.0804 1.0576 7.0613-.1554 10.3619-1.0789 2.9227-1.8438 2.237-1.8438 2.237l-.5577-4.4404c-3.7577-4.669-5.5254-24.4694 6.4152-24.8473 8.2103-.2712-.448 6.7779-.448 6.7779z" fill="#3f3d65"/><path d="m83.0821 53.683c.4532-1.8303 1.1202-3.601 1.9871-5.2754.9448-1.6823 3.3189-2.6362 4.5714-.634.9478 1.5239-.39 5.6229-2.1089 7.9726-2.1333 2.9379-4.6659 4.3612-5.2571 4.3764-.4816.0122.2803-3.8766.8075-6.4396z" fill="#e7baef"/><path d="m42.7287 47.9413c-.0701-1.9109-.7558-6.1928-3.5718-5.4857-1.7463.4419-1.4781 4.4251-.8442 7.7257.5882 3.0476 2.8952 5.8179 3.2396 6.2964.774 1.0788 1.3287-4.3764 1.1764-8.5364z" fill="#e7baef"/></g></svg>

<svg width="128" height="128" viewBox="0 0 128 128" fill="none" xmlns="http://www.w3.org/2000/svg">
<mask id="mask0_457_1653" style="mask-type:alpha" maskUnits="userSpaceOnUse" x="8" y="10" width="112" height="108">
<path fill-rule="evenodd" clip-rule="evenodd" d="M62.6286 10.0575C78.1149 10.1273 96.6442 21.4265 106.821 33.1324C117.528 45.4465 121.714 62.2941 118.309 78.2706C114.845 94.5215 104.603 109.4 89.2401 115.628C74.7994 121.482 59.6742 114.3 45.5216 107.777C30.8831 101.03 14.1928 94.4676 9.68153 78.9576C4.9526 62.6992 12.3274 45.2764 23.7014 32.7575C34.2047 21.197 47.0335 9.98712 62.6286 10.0575Z" fill="#EFF6F7"/>
</mask>
<g mask="url(#mask0_457_1653)">
<path fill-rule="evenodd" clip-rule="evenodd" d="M65.4958 17.5251C80.9822 17.5949 96.6442 21.4265 106.821 33.1324C117.528 45.4465 121.714 62.2941 118.309 78.2706C114.845 94.5214 104.603 109.4 89.2401 115.628C74.7994 121.482 59.6742 114.3 45.5216 107.777C30.8831 101.03 14.1928 94.4675 9.68153 78.9575C4.9526 62.6991 12.3274 45.2764 23.7014 32.7575C34.2047 21.197 49.9008 17.4547 65.4958 17.5251Z" fill="#EFF6F7"/>
<path d="M74.6525 66.1813C74.6525 74.6415 75.7679 81.9923 84.0086 86.5272C94.0475 92.0464 95.6658 92.0129 104.382 97.3706C114.854 103.798 121.293 112.136 123.262 123.717L4.50543 123.861C4.50543 122.501 7.8304 111.594 14.8033 104.453C19.2712 99.8818 26.2562 95.4689 36.9808 90.9432C51.9477 84.6255 47.6902 81.1908 47.0623 62.8837C46.6905 51.9062 74.6525 51.4917 74.6525 66.1813Z" fill="#E7BAEF"/>
<path d="M76.481 78.3808C75.326 75.6167 74.8658 72.5233 74.7195 69.2106C66.5458 69.5367 55.2148 69.1435 47.4555 69.4056C48.0011 76.15 48.6745 80.2551 47.2635 83.4247C54.9892 89.4407 71.4129 85.4757 76.481 78.3808Z" fill="#DB9FE6"/>
<path d="M125.639 124.126L98.4635 124.162L24.385 124.244L2.13742 124.269C2.04295 124.269 3.62771 119.225 3.74352 118.929C5.07362 115.504 6.79576 112.243 8.87567 109.214C13.5964 102.417 22.5565 97.5626 29.8007 93.9938C31.9553 92.918 42.3507 88.4868 42.3507 88.4868C44.225 90.9249 52.8559 96.6818 55.4372 97.5717C56.5709 97.974 59.4387 113.889 62.2913 114.19C64.0315 114.376 67.4387 104.359 68.1519 99.3759C68.2341 98.7908 70.4742 97.8033 72.3576 96.8647C79.5744 93.2776 85.1332 88.7306 85.7671 86.6521C86.1633 87.8011 103.715 95.9108 106.747 97.7698C117.222 104.216 123.661 112.539 125.639 124.126Z" fill="#B671C6"/>
<path d="M43.5668 82.5775C46.1451 84.6468 47.5866 86.3413 50.8018 87.4536C53.9013 88.5112 56.1382 89.1451 56.4186 92.9394C56.5283 94.4266 56.2662 98.8335 56.2662 98.8335C45.4289 98.8335 38.5626 92.1287 38.5626 90.2544C39.9668 87.5328 41.6434 84.9606 43.5668 82.5775V82.5775Z" fill="#E7BAEF"/>
<path d="M80.9062 80.2856C78.9191 83.1037 76.2842 85.4031 73.2231 86.9904C69.9988 88.7032 68.5755 89.5047 68.0178 91.6776C67.3382 94.3199 68.0178 99.4034 68.0178 99.4034C68.5481 99.7081 72.4612 99.8148 77.5873 97.1176C80.4033 95.6365 85.7336 90.3154 86.7058 87.2921C85.1271 84.6742 82.817 82.7695 80.9062 80.2856Z" fill="#E7BAEF"/>
<path d="M45.4929 27.894C43.2865 33.6449 45.4137 37.2929 43.4906 43.5618C38.9893 58.2544 40.9702 67.1108 45.5356 72.691C48.7081 76.5706 51.4601 79.9656 58.4666 80.6453C71.4921 81.907 78.5627 76.9211 82.5947 67.1016C85.7916 59.315 83.3809 52.7474 85.5478 46.6186C90.9268 31.4171 82.6068 21.9878 67.1615 20.47C54.8796 19.2601 47.1478 23.5756 45.4929 27.894Z" fill="#E7BAEF"/>
<path d="M82.0155 34.4586C82.0155 34.4586 87.9401 29.5641 86.526 24.4014C84.2769 16.2277 75.0609 16.2277 71.7939 14.073C67.4998 11.2388 60.5755 10.0106 52.8529 13.8445C43.7862 18.3428 42.1039 29.2258 45.5995 33.3919C46.6174 31.2372 47.8913 29.3233 49.4761 28.4152C53.8189 25.9344 56.5466 29.0247 61.8708 29.6555C66.1161 30.1614 71.1447 28.8692 73.5371 28.918C81.1043 29.0765 82.0155 34.4586 82.0155 34.4586Z" fill="#3F3D65"/>
<path d="M81.2567 31.795C81.2567 31.795 82.7805 34.3824 81.9363 40.2582C81.0555 46.4662 80.6167 49.9923 81.8601 52.5066C82.5946 53.9878 83.3352 53.1466 83.3352 53.1466L86.7424 48.1394C92.6121 46.3108 95.9371 24.3436 83.8746 23.283C75.6887 22.5638 81.2567 31.795 81.2567 31.795Z" fill="#3F3D65"/>
<path d="M47.8913 29.3294C45.7048 32.1731 44.5073 35.6533 44.481 39.2403C44.481 44.3207 45.5386 46.3016 44.3256 49.6022C43.2467 52.5249 42.4818 51.8392 42.4818 51.8392L41.9241 47.3988C38.1664 42.7298 36.3987 22.9294 48.3393 22.5515C56.5496 22.2803 47.8913 29.3294 47.8913 29.3294Z" fill="#3F3D65"/>
<path d="M83.0821 53.683C83.5353 51.8527 84.2023 50.082 85.0692 48.4076C86.014 46.7253 88.3881 45.7714 89.6406 47.7736C90.5884 49.2975 89.2506 53.3965 87.5317 55.7462C85.3984 58.6841 82.8658 60.1074 82.2746 60.1226C81.793 60.1348 82.5549 56.246 83.0821 53.683Z" fill="#E7BAEF"/>
<path d="M42.7287 47.9413C42.6586 46.0304 41.9729 41.7485 39.1569 42.4556C37.4106 42.8975 37.6788 46.8807 38.3127 50.1813C38.9009 53.2289 41.2079 55.9992 41.5523 56.4777C42.3263 57.5565 42.881 52.1013 42.7287 47.9413Z" fill="#E7BAEF"/>
</g>
</svg>
